X: 974
T: the Garden of Daisies
O: Ireland
R: reel, hornpipe; long dance, set dance
%S: s:3 b:24(8+8+8)
B: Francis O'Neill: "The Dance Music of Ireland" (1907) #974
Z: Frank Nordberg - http://www.musicaviva.com
F: http://www.musicaviva.com/abc/tunes/ireland/oneill-1001/0974/oneill-1001-0974-1.abc
M: C
L: 1/8
K: D
"^A"[|] fg \
| a2(af) gbag | fefa gfef | dcde fdec | dedc AGFG |
| ABcA dcAG | FEFG ABcA | dcdf edce | d2dd [1 de :|[2 d2 ||
"^B"|: A2 \
| dcde fefg | a2(af) defg | a2(af) ggag | f2(fe) defg |
| a2(af) gbag | fefa gfef | dcde fdec | dedc A2 ||
|| (fg) \
| a2(af) gbag | fefa gfef | dcde fdec | dedc AGFG |
| ABcA dcAG | FEFG ABcA | dcdf edce | d2dd [1 d2 :|[2 de |]
